setcps 1

d1 $ whenmod 3 2 (rev) $ n "{4 3 2 1}"
    # gain "3 2 1 4"

d1 $ cat [
    n "1 2 3 4",
    n "4 3 2 1"
]

d1 $ whenmod 3 2 (rev) $ n "{4 3 2 1}"
    # gain "1 2 3 4"

d1 $silence

hush